X:1067
T:Wood's Hornpipe.
M:C
L:1/8
Q:1/2=96
I: :: ::
Z:Jack Campin * www.campin.me.uk * 2009
K:G
DE/F/|G2G2 G2Bc|dBdg dBAG|edcB cBAG|FGAB A2
DE/F/|G2G2 G2Bc|dBdg dBAG|edcB cBAG|FGAB G2:|
Bc   |dBdg dBdg|eceg eceg|edcB cBAG|FGAB A2
Bc   |dBdg dBdg|eceg eceg|gfed cBAG|D2G2 G2:|
<end>
<start>
